build-source/logos/beinsports3hd.light.svg

<?xml version="1.0" encoding="UTF-8" standalone="no"?>
<svg
   xmlns:dc="http://purl.org/dc/elements/1.1/"
   xmlns:cc="http://creativecommons.org/ns#"
   xmlns:rdf="http://www.w3.org/1999/02/22-rdf-syntax-ns#"
   xmlns:svg="http://www.w3.org/2000/svg"
   xmlns="http://www.w3.org/2000/svg"
   xmlns:sodipodi="http://sodipodi.sourceforge.net/DTD/sodipodi-0.dtd"
   xmlns:inkscape="http://www.inkscape.org/namespaces/inkscape"
   height="59.803272mm"
   width="169.33333mm"
   version="1.1"
   viewBox="0 0 600.01177 211.90146"
   id="svg2"
   inkscape:version="0.91 r"
   sodipodi:docname="beinsports3hd.svg">
  <metadata
     id="metadata110">
    <rdf:RDF>
      <cc:Work
         rdf:about="">
        <dc:format>image/svg+xml</dc:format>
        <dc:type
           rdf:resource="http://purl.org/dc/dcmitype/StillImage" />
        <dc:title></dc:title>
      </cc:Work>
    </rdf:RDF>
  </metadata>
  <sodipodi:namedview
     pagecolor="#ffffff"
     bordercolor="#666666"
     borderopacity="1"
     objecttolerance="10"
     gridtolerance="10"
     guidetolerance="10"
     inkscape:pageopacity="0"
     inkscape:pageshadow="2"
     inkscape:window-width="1680"
     inkscape:window-height="1000"
     id="namedview108"
     showgrid="false"
     fit-margin-top="0"
     fit-margin-left="0"
     fit-margin-right="0"
     fit-margin-bottom="0"
     inkscape:zoom="0.52167693"
     inkscape:cx="-30.66251"
     inkscape:cy="105.95043"
     inkscape:window-x="0"
     inkscape:window-y="0"
     inkscape:window-maximized="1"
     inkscape:current-layer="svg2" />
  <defs
     id="defs4">
    <linearGradient
       id="i"
       gradientUnits="userSpaceOnUse"
       gradientTransform="matrix(124.21323,-95.152478,95.152478,124.21323,110.59888,20.268499)">
      <stop
         stop-color="#190031"
         offset="0"
         id="stop7" />
      <stop
         stop-color="#190031"
         offset=".0060577"
         id="stop9" />
      <stop
         stop-color="#5c2d91"
         offset="1"
         id="stop11" />
    </linearGradient>
    <linearGradient
       id="h"
       gradientUnits="userSpaceOnUse"
       gradientTransform="matrix(124.21323,-95.152478,95.152478,124.21323,169.65042,97.360506)">
      <stop
         stop-color="#190031"
         offset="0"
         id="stop14" />
      <stop
         stop-color="#190031"
         offset=".0060577"
         id="stop16" />
      <stop
         stop-color="#5c2d91"
         offset="1"
         id="stop18" />
    </linearGradient>
    <linearGradient
       id="g"
       gradientUnits="userSpaceOnUse"
       gradientTransform="matrix(124.21323,-95.153478,95.153478,124.21323,196.98113,133.04144)">
      <stop
         stop-color="#190031"
         offset="0"
         id="stop21" />
      <stop
         stop-color="#190031"
         offset=".0060577"
         id="stop23" />
      <stop
         stop-color="#5c2d91"
         offset="1"
         id="stop25" />
    </linearGradient>
    <linearGradient
       id="f"
       gradientUnits="userSpaceOnUse"
       gradientTransform="matrix(124.21323,-95.152478,95.152478,124.21323,233.12207,180.21266)">
      <stop
         stop-color="#190031"
         offset="0"
         id="stop28" />
      <stop
         stop-color="#190031"
         offset=".0060577"
         id="stop30" />
      <stop
         stop-color="#5c2d91"
         offset="1"
         id="stop32" />
    </linearGradient>
    <linearGradient
       id="e"
       gradientUnits="userSpaceOnUse"
       gradientTransform="matrix(124.21323,-95.152478,95.152478,124.21323,208.58143,196.8431)">
      <stop
         stop-color="#190031"
         offset="0"
         id="stop35" />
      <stop
         stop-color="#190031"
         offset=".0060577"
         id="stop37" />
      <stop
         stop-color="#5c2d91"
         offset="1"
         id="stop39" />
    </linearGradient>
    <linearGradient
       id="d"
       gradientUnits="userSpaceOnUse"
       gradientTransform="matrix(124.21323,-95.152478,95.152478,124.21323,230.19199,225.04883)">
      <stop
         stop-color="#190031"
         offset="0"
         id="stop42" />
      <stop
         stop-color="#190031"
         offset=".0060577"
         id="stop44" />
      <stop
         stop-color="#5c2d91"
         offset="1"
         id="stop46" />
    </linearGradient>
    <linearGradient
       id="c"
       gradientUnits="userSpaceOnUse"
       gradientTransform="matrix(124.21323,-95.152478,95.152478,124.21323,259.20275,262.92082)">
      <stop
         stop-color="#190031"
         offset="0"
         id="stop49" />
      <stop
         stop-color="#190031"
         offset=".0060577"
         id="stop51" />
      <stop
         stop-color="#5c2d91"
         offset="1"
         id="stop53" />
    </linearGradient>
    <linearGradient
       id="b"
       gradientUnits="userSpaceOnUse"
       gradientTransform="matrix(124.21323,-95.152478,95.152478,124.21323,196.82112,181.4927)">
      <stop
         stop-color="#190031"
         offset="0"
         id="stop56" />
      <stop
         stop-color="#190031"
         offset=".0060577"
         id="stop58" />
      <stop
         stop-color="#5c2d91"
         offset="1"
         id="stop60" />
    </linearGradient>
    <linearGradient
       id="a"
       gradientUnits="userSpaceOnUse"
       gradientTransform="matrix(124.21323,-95.152478,95.152478,124.21323,249.5325,250.29649)">
      <stop
         stop-color="#190031"
         offset="0"
         id="stop63" />
      <stop
         stop-color="#190031"
         offset=".0060577"
         id="stop65" />
      <stop
         stop-color="#5c2d91"
         offset="1"
         id="stop67" />
    </linearGradient>
    <linearGradient
       id="j"
       gradientUnits="userSpaceOnUse"
       gradientTransform="matrix(157.6141,-91.00037,91.00037,157.6141,446.11761,135.6415)">
      <stop
         stop-color="#56247a"
         offset="0"
         id="stop70" />
      <stop
         stop-color="#111211"
         offset="1"
         id="stop72" />
    </linearGradient>
  </defs>
  <path
     inkscape:connector-curvature="0"
     style="fill:#ffffff"
     id="path76"
     d="M 0.02400063,4.0780768 C 0.02400063,4.0780768 0,66.579705 0,94.970444 0,123.37118 23.471611,150.07188 56.667476,150.07188 89.85834,150.07188 113.29895,121.66114 113.29895,92.88039 113.29895,64.10964 90.438355,36.488921 56.637475,36.488921 22.841595,36.488921 8.1802131,63.169616 8.1802131,63.169616 L 8.1802131,4.0780768 C 8.1802131,1.8280182 6.3561655,-0.00202946 4.1001067,-0.00202946 1.8480482,-0.00202946 0.02400063,1.8280182 0.02400063,4.0780768 M 8.3472173,92.90039 C 8.3472173,66.149693 29.911779,44.459129 56.527472,44.459129 83.128165,44.459129 104.70872,66.149693 104.70872,92.90039 104.70872,119.65109 83.128165,141.34165 56.527472,141.34165 29.911779,141.34165 8.3472173,119.65109 8.3472173,92.90039" />
  <path
     inkscape:connector-curvature="0"
     style="fill:#ffffff"
     id="path78"
     d="M 118.50908,93.030394 C 118.50908,124.39121 143.93975,149.82187 175.30056,149.82187 195.72109,149.82187 213.62156,139.03159 223.64182,122.85117 224.93185,120.92112 224.36184,118.28105 222.42179,116.98102 220.47174,115.68098 217.83167,116.221 216.53164,118.16105 208.05142,132.03141 192.75102,141.29165 175.30056,141.29165 148.63987,141.29165 127.02931,119.69109 127.02931,93.030394 127.02931,66.369699 148.63987,44.749136 175.30056,44.749136 200.47122,44.749136 221.14176,64.019638 223.37181,88.600278 L 167.15035,88.600278 C 164.78029,88.600278 162.90024,90.520328 162.90024,92.89039 162.90024,95.250451 164.82029,97.180502 167.19035,97.180502 L 227.79193,97.180502 C 230.99201,97.180502 232.09204,94.930443 232.09204,93.030394 232.09204,61.659576 206.67138,36.228914 175.30056,36.228914 143.93975,36.228914 118.50908,61.659576 118.50908,93.030394" />
  <path
     inkscape:connector-curvature="0"
     style="fill:#ffffff"
     id="path80"
     d="M 248.36247,36.168913 248.39247,36.168913 248.36247,36.168913 Z M 248.36247,36.168913 C 242.86232,36.188913 238.69221,40.509026 238.39221,44.429128 L 238.39221,142.91169 C 238.69221,146.83179 242.86232,151.16191 248.36247,151.17191 253.87261,151.16191 258.04272,146.83179 258.34272,142.91169 L 258.34272,44.429128 C 258.04272,40.509026 253.87261,36.188913 248.36247,36.168913 M 248.34246,36.168913 248.36247,36.168913 248.34246,36.168913 Z M 248.36247,151.17191 248.39247,151.17191 248.36247,151.17191 M 248.34246,151.17191 248.36247,151.17191 248.34246,151.17191" />
  <path
     inkscape:connector-curvature="0"
     style="fill:#ffffff"
     id="path82"
     d="M 414.8668,36.258915 414.8868,36.258915 414.8668,36.258915 Z M 414.8668,36.258915 C 409.44666,36.268915 405.35655,40.589028 405.05655,44.449128 L 405.05655,117.01102 C 405.05655,119.67109 403.4065,126.22126 397.14634,129.20134 383.66599,135.6115 376.72581,123.30118 376.72581,123.30118 L 331.80464,52.639342 C 326.6145,43.629107 310.60409,30.718771 288.81352,38.828982 267.81297,47.449206 267.56297,69.299775 267.56297,69.299775 L 267.56297,142.91169 C 267.86297,146.83179 272.03308,150.7019 277.54322,150.7219 283.04337,150.7019 287.26348,146.31178 287.26348,141.78166 L 287.26348,71.309828 C 287.26348,71.309828 286.26345,57.409466 302.24387,55.969428 311.57411,55.429414 316.17423,65.109666 316.17423,65.109666 316.17423,65.109666 357.0653,129.59135 361.2154,136.01151 365.36551,142.42168 382.14595,156.87206 403.93652,148.00183 425.98709,139.02159 424.67706,116.95102 424.67706,116.95102 L 424.68706,44.409127 C 424.38705,40.549027 420.28694,36.268915 414.8668,36.258915 M 414.8468,36.258915 414.8668,36.258915 414.8468,36.258915 Z M 277.54322,150.7219 277.56323,150.7219 277.54322,150.7219 Z M 277.52322,150.7219 277.54322,150.7219 277.52322,150.7219 Z" />
  <path
     inkscape:connector-curvature="0"
     style="fill:#ffffff"
     id="path84"
     d="M 217.25165,175.36254 217.28166,208.90341 C 217.28166,210.51345 218.59169,211.80349 220.19173,211.80349 221.80177,211.80349 223.11181,210.51345 223.11181,208.90341 L 223.11181,194.14303 236.00214,194.14303 C 246.37241,194.14303 254.78263,185.72281 254.78263,175.35254 254.78263,164.96227 246.37241,156.53205 236.00214,156.53205 224.50184,156.53205 217.25165,164.63226 217.25165,175.36254 M 223.08181,175.33254 C 223.08181,167.82234 227.89193,162.16219 235.93214,162.16219 243.19233,162.16219 249.08248,168.05235 249.08248,175.32254 249.08248,182.59273 243.19233,188.42288 235.93214,188.42288 L 223.11181,188.42288 223.08181,175.33254 Z" />
  <path
     inkscape:connector-curvature="0"
     style="fill:#ffffff"
     id="path86"
     d="M 255.82266,184.16277 C 255.82266,199.46317 268.27298,211.90349 283.57338,211.90349 298.86378,211.90349 311.3141,199.46317 311.3141,184.16277 311.3141,168.86237 298.86378,156.41204 283.57338,156.41204 268.27298,156.41204 255.82266,168.86237 255.82266,184.16277 M 262.04282,184.16277 C 262.04282,172.29246 271.70307,162.64221 283.57338,162.64221 295.43369,162.64221 305.09394,172.29246 305.09394,184.16277 305.09394,196.02308 295.43369,205.68333 283.57338,205.68333 271.70307,205.68333 262.04282,196.02308 262.04282,184.16277" />
  <path
     inkscape:connector-curvature="0"
     style="fill:#ffffff"
     id="path88"
     d="M 353.3552,158.5021 C 351.63515,158.5021 350.24512,159.84213 350.24512,161.49218 350.24512,163.14222 351.63515,164.48225 353.3552,164.48225 L 365.67552,164.48225 365.67552,208.3734 C 365.67552,210.07344 367.00555,211.43348 368.6556,211.43348 370.30564,211.43348 371.63568,210.07344 371.63568,208.3734 L 371.63568,164.48225 383.80599,164.48225 C 385.51604,164.48225 386.91607,163.14222 386.91607,161.49218 386.91607,159.84213 385.51604,158.5021 383.80599,158.5021 L 353.3552,158.5021 Z" />
  <path
     inkscape:connector-curvature="0"
     style="fill:#ffffff"
     id="path90"
     d="M 193.42103,156.44204 C 178.51065,156.44204 175.30056,167.40233 175.30056,173.04248 175.30056,178.68262 179.81068,186.26282 193.55104,186.26282 207.3014,186.26282 206.71138,194.43303 206.71138,194.75304 206.71138,195.08305 207.4614,205.46332 193.58104,205.42332 182.23074,205.39332 180.88071,196.70309 181.04071,194.02302 181.04071,192.44298 179.75068,191.21295 178.18064,191.21295 176.6006,191.21295 175.32056,192.44298 175.32056,194.02302 175.07056,203.53327 182.57075,211.16347 193.49104,211.16347 207.16139,211.16347 212.48153,202.73325 212.48153,194.82304 212.48153,186.92284 206.22137,180.49267 193.52104,180.49267 180.81071,180.49267 180.94071,173.20248 180.94071,173.20248 180.94071,173.20248 180.13069,162.05219 193.55104,162.05219 206.97139,162.05219 205.94136,174.19251 205.94136,174.19251 205.94136,175.74255 207.21139,176.98258 208.76143,176.98258 210.32147,176.98258 211.57151,175.74255 211.57151,174.19251 211.57151,156.79205 194.86107,156.44204 193.51104,156.44204 L 193.42103,156.44204" />
  <path
     inkscape:connector-curvature="0"
     style="fill:#ffffff"
     id="path92"
     d="M 314.10418,175.36254 314.13418,208.90341 C 314.13418,210.51345 315.43421,211.80349 317.04425,211.80349 318.6643,211.80349 319.96433,210.51345 319.96433,208.90341 L 319.96433,194.14303 332.60466,194.14303 342.42491,210.17344 C 343.23494,211.59348 345.03498,212.08349 346.45502,211.27347 347.86506,210.45345 348.36507,208.6534 347.55505,207.23337 L 338.94482,193.113 C 346.32502,190.57293 351.63515,183.58275 351.63515,175.35254 351.63515,164.96227 343.22494,156.53205 332.85467,156.53205 321.36437,156.53205 314.10418,164.63226 314.10418,175.36254 M 319.93433,175.33254 C 319.93433,167.82234 324.74445,162.16219 332.78466,162.16219 340.04485,162.16219 345.93501,168.05235 345.93501,175.32254 345.93501,182.59273 340.04485,188.42288 332.78466,188.42288 L 319.96433,188.42288 319.93433,175.33254 Z" />
  <path
     style="fill:#ffffff"
     inkscape:connector-curvature="0"
     id="path94"
     d="M 418.02688,174.56252 C 418.02688,174.56252 419.05691,162.4222 405.63656,162.4222 392.21621,162.4222 393.02623,173.57249 393.02623,173.57249 393.02623,173.57249 392.88623,180.86268 405.59656,180.86268 418.30689,180.86268 424.56705,187.29285 424.56705,195.20305 424.56705,203.10326 419.24692,211.53348 405.56656,211.53348 394.65628,211.53348 387.14608,203.90328 387.39609,194.39303 387.39609,192.82299 388.68612,191.58296 390.25616,191.58296 391.8362,191.58296 393.11623,192.82299 393.11623,194.39303 392.96623,197.0731 394.31627,205.76333 405.66656,205.79333 419.53692,205.83333 418.7969,195.45306 418.7969,195.13305 418.7969,194.80304 419.37692,186.64283 405.63656,186.64283 391.8962,186.64283 387.38609,179.05263 387.38609,173.42249 387.38609,167.77234 390.59617,156.81205 405.50656,156.81205 405.50656,156.81205 423.65703,156.43204 423.65703,174.56252 423.65703,176.11256 422.397,177.35259 420.84696,177.35259 419.28692,177.35259 418.02688,176.11256 418.02688,174.56252" />
  <path
     style="fill:#ffffff"
     d="M 445.68831,36.628472 C 441.39819,36.628472 437.93796,40.118949 437.93796,44.36906 L 437.93796,117.29035 C 437.93796,117.29035 437.91646,117.32068 437.91646,117.36068 437.91646,117.40067 437.93796,117.41052 437.93796,117.45052 L 437.93796,117.56186 C 438.03796,135.57232 452.5571,150.1921 470.51756,150.53211 470.54756,150.53211 470.58742,150.55164 470.60742,150.55164 L 592.28094,150.55164 C 593.56097,150.55164 594.7306,150.24224 595.80063,149.69222 595.83063,149.66222 595.87196,149.66191 595.91197,149.62191 595.89196,149.64191 595.89079,149.62113 595.96079,149.57113 598.32086,148.2311 600.01176,145.73113 600.01176,142.81105 L 600.01176,44.36906 C 600.01176,41.168977 598.06114,38.429625 595.28108,37.249594 594.36105,36.849584 593.33097,36.628472 592.28094,36.628472 L 544.29046,36.628472 445.70784,36.628472 445.68831,36.628472 Z M 450.20805,62.209719 477.23858,62.209719 C 478.3586,62.209719 479.37924,62.329572 480.29926,62.549577 481.5293,62.739583 482.64767,63.260328 483.53769,64.020347 484.79772,65.020374 485.91773,67.169362 485.95773,69.319417 485.98773,70.95946 485.54847,72.128941 484.75845,73.178969 L 484.77798,73.178969 475.7678,84.68926 C 482.05797,88.029347 486.32883,94.671193 486.32883,102.30139 486.32883,113.32168 477.39923,122.27105 466.36894,122.27105 456.03867,122.27105 447.55821,114.43182 446.52819,104.38157 L 456.4681,104.38157 C 457.42813,108.98169 461.49881,112.43076 466.36894,112.43076 471.95909,112.43076 476.48855,107.90154 476.48855,102.30139 476.48855,96.751247 472.528,92.979857 466.49785,92.179837 463.64778,92.179837 461.35894,89.861003 461.35894,87.04093 461.35894,85.790897 461.79843,84.629787 462.54845,83.749764 L 471.63871,72.169157 452.55776,72.169157 450.20805,62.209719 Z M 491.32906,62.219484 502.86865,62.219484 502.86865,122.25152 491.32906,122.25152 491.32906,62.219484 Z M 524.27979,62.219484 535.71976,62.219484 535.71976,122.25152 524.27979,122.25152 524.27979,96.910521 507.36885,96.910521 507.36885,86.249878 524.27979,86.249878 524.27979,62.219484 Z M 544.64986,62.229251 566.06099,62.229251 C 582.78143,62.229251 593.18137,73.710138 593.18137,92.23062 593.18137,110.5711 582.53142,122.25152 566.06099,122.25152 L 560.68965,122.25152 560.68965,111.61042 566.06099,111.61042 C 579.67134,111.61042 581.75116,99.410493 581.75116,92.160304 581.75116,83.320074 578.97132,72.860595 566.06099,72.860595 L 556.0996,72.860595 556.0996,122.25152 544.64986,122.25152 544.64986,62.229251 Z"
     id="path96"
     inkscape:connector-curvature="0" />
</svg>

<svg xmlns="http://www.w3.org/2000/svg" height="211.9" width="600" viewBox="0 0 600.01177 211.90146"><g fill="#fff"><path d="m.024 4.078c0 0-.024 62.5-.024 90.89 0 28.401 23.472 55.1 56.667 55.1 33.19 0 56.631-28.411 56.631-57.19 0-28.771-22.861-56.39-56.661-56.39-33.796 0-48.46 26.681-48.46 26.681v-59.09c0-2.25-1.824-4.08-4.08-4.08-2.252 0-4.076 1.83-4.076 4.08m8.323 88.82c0-26.751 21.565-48.44 48.18-48.44 26.601 0 48.18 21.691 48.18 48.44 0 26.751-21.581 48.44-48.18 48.44-26.616 0-48.18-21.691-48.18-48.44"/><path d="m118.51 93.03c0 31.361 25.431 56.791 56.791 56.791 20.421 0 38.32-10.79 48.34-26.971 1.29-1.93.72-4.57-1.22-5.87-1.95-1.3-4.59-.76-5.89 1.18-8.48 13.87-23.781 23.13-41.23 23.13-26.661 0-48.27-21.601-48.27-48.26 0-26.661 21.611-48.28 48.27-48.28 25.17 0 45.841 19.271 48.07 43.851h-56.22c-2.37 0-4.25 1.92-4.25 4.29 0 2.36 1.92 4.29 4.29 4.29h60.6c3.2 0 4.3-2.25 4.3-4.15 0-31.371-25.421-56.801-56.791-56.801-31.361 0-56.791 25.431-56.791 56.801"/><path d="m248.36 36.17h.03-.03m0 0c-5.5.02-9.67 4.34-9.97 8.26v98.48c.3 3.92 4.47 8.25 9.97 8.26 5.51-.001 9.68-4.34 9.98-8.26v-98.48c-.3-3.92-4.47-8.24-9.98-8.26m-.02 0h.02-.02m.02 115h.03-.03m-.02 0h.02-.02"/><path d="m414.87 36.26h.02-.02m0 0c-5.42.0001-9.51 4.33-9.81 8.19v72.56c0 2.66-1.65 9.21-7.91 12.19-13.48 6.41-20.421-5.9-20.421-5.9l-44.921-70.66c-5.19-9.01-21.2-21.921-42.991-13.81-21 8.62-21.251 30.471-21.251 30.471v73.61c.3 3.92 4.47 7.79 9.98 7.81 5.5-.02 9.72-4.41 9.72-8.94v-70.47c0 0-1-13.9 14.98-15.34 9.33-.54 13.93 9.14 13.93 9.14 0 0 40.891 64.48 45.04 70.902 4.15 6.41 20.931 20.861 42.721 11.99 22.05-8.98 20.741-31.05 20.741-31.05v-72.54c-.3-3.86-4.4-8.14-9.82-8.15m-.02 0h.02-.02m-137.3 114.46h.02-.02m-.02 0h.02-.02"/><path d="m217.25 175.36l.03 33.541c0 1.61 1.31 2.9 2.91 2.9 1.61 0 2.92-1.29 2.92-2.9v-14.76h12.89c10.37 0 18.78-8.42 18.78-18.79 0-10.39-8.41-18.82-18.78-18.82-11.5 0-18.75 8.1-18.75 18.83m5.83-.03c0-7.51 4.81-13.17 12.85-13.17 7.26 0 13.15 5.89 13.15 13.16 0 7.27-5.89 13.1-13.15 13.1h-12.82l-.03-13.09"/><path d="m255.82 184.16c0 15.3 12.45 27.741 27.751 27.741 15.29 0 27.741-12.44 27.741-27.741 0-15.3-12.45-27.751-27.741-27.751-15.3 0-27.751 12.45-27.751 27.751m6.22 0c0-11.87 9.66-21.521 21.531-21.521 11.86 0 21.521 9.65 21.521 21.521 0 11.86-9.66 21.521-21.521 21.521-11.87 0-21.531-9.66-21.531-21.521"/><path d="m353.36 158.5c-1.72 0-3.11 1.34-3.11 2.99 0 1.65 1.39 2.99 3.11 2.99h12.32v43.891c0 1.7 1.33 3.06 2.98 3.06 1.65 0 2.98-1.36 2.98-3.06v-43.891h12.17c1.71 0 3.11-1.34 3.11-2.99 0-1.65-1.4-2.99-3.11-2.99h-30.451"/><path d="m193.42 156.44c-14.91 0-18.12 10.96-18.12 16.6 0 5.64 4.51 13.22 18.25 13.22 13.75 0 13.16 8.17 13.16 8.49 0 .33.75 10.71-13.13 10.67-11.35-.03-12.7-8.72-12.54-11.4 0-1.58-1.29-2.81-2.86-2.81-1.58 0-2.86 1.23-2.86 2.81-.25 9.51 7.25 17.14 18.17 17.14 13.67 0 18.99-8.43 18.99-16.34 0-7.9-6.26-14.33-18.96-14.33-12.71 0-12.58-7.29-12.58-7.29 0 0-.81-11.15 12.61-11.15 13.42 0 12.39 12.14 12.39 12.14 0 1.55 1.27 2.79 2.82 2.79 1.56 0 2.81-1.24 2.81-2.79 0-17.4-16.71-17.75-18.06-17.75h-.09"/><path d="m314.1 175.36l.03 33.541c0 1.61 1.3 2.9 2.91 2.9 1.62 0 2.92-1.29 2.92-2.9v-14.76h12.64l9.82 16.03c.81 1.42 2.61 1.91 4.03 1.1 1.41-.82 1.91-2.62 1.1-4.04l-8.61-14.12c7.38-2.54 12.69-9.53 12.69-17.76 0-10.39-8.41-18.82-18.78-18.82-11.49 0-18.75 8.1-18.75 18.83m5.83-.03c0-7.51 4.81-13.17 12.85-13.17 7.26 0 13.15 5.89 13.15 13.16 0 7.27-5.89 13.1-13.15 13.1h-12.82l-.03-13.09"/><path d="m418.03 174.56c0 0 1.03-12.14-12.39-12.14-13.42 0-12.61 11.15-12.61 11.15 0 0-.14 7.29 12.57 7.29 12.71 0 18.97 6.43 18.97 14.34 0 7.9-5.32 16.33-19 16.33-10.91 0-18.42-7.63-18.17-17.14 0-1.57 1.29-2.81 2.86-2.81 1.58 0 2.86 1.24 2.86 2.81-.15 2.68 1.2 11.37 12.55 11.4 13.87.04 13.13-10.34 13.13-10.66 0-.33.58-8.49-13.16-8.49-13.74 0-18.25-7.59-18.25-13.22 0-5.65 3.21-16.61 18.12-16.61 0 0 18.15-.38 18.15 17.75 0 1.55-1.26 2.79-2.81 2.79-1.56 0-2.82-1.24-2.82-2.79"/><path d="m445.69 36.628c-4.29 0-7.75 3.49-7.75 7.741v72.921c0 0-.022.03-.022.07 0 .04.022.05.022.09v.111c.1 18.01 14.619 32.63 32.58 32.97.03 0 .07.02.09.02h121.67c1.28 0 2.45-.309 3.52-.859.03-.03.071-.03.111-.07-.02.02-.021 0 .049-.051 2.36-1.34 4.051-3.84 4.051-6.76v-98.44c0-3.2-1.951-5.939-4.731-7.119-.92-.4-1.95-.621-3-.621h-47.99-98.58-.02m4.52 25.581h27.03c1.12 0 2.141.12 3.061.34 1.23.19 2.348.711 3.238 1.471 1.26 1 2.38 3.149 2.42 5.299.03 1.64-.409 2.81-1.199 3.86h.02l-9.01 11.51c6.29 3.34 10.561 9.982 10.561 17.612 0 11.02-8.93 19.97-19.96 19.97-10.33 0-18.811-7.839-19.841-17.889h9.94c.96 4.6 5.03 8.05 9.901 8.05 5.59 0 10.12-4.529 10.12-10.129 0-5.55-3.961-9.322-9.991-10.122-2.85 0-5.139-2.319-5.139-5.139 0-1.25.439-2.411 1.19-3.291l9.09-11.581h-19.08l-2.35-9.959m41.12.0001h11.54v60.03h-11.54v-60.03m32.951 0h11.44v60.03h-11.44v-25.341h-16.911v-10.661h16.911v-24.03m20.37.0001h21.411c16.72 0 27.12 11.481 27.12 30 0 18.34-10.65 30.02-27.12 30.02h-5.371v-10.641h5.371c13.61 0 15.69-12.2 15.69-19.45 0-8.84-2.78-19.3-15.69-19.3h-9.961v49.39h-11.45v-60.02"/></g></svg>
